X:1
T:Title
%%score { ( 1 3 ) | ( 2 4 ) }
L:1/8
M:4/4
K:Eb
V:1 treble nm="Grand Piano"
V:3 treble 
V:2 bass 
V:4 bass 
V:1
 z4 z2[Q:1/4=100] [EG][FA] | [GB]2 [GB][GB] [Ac]2 [GB][_G=A] | [GB]6 G2 | E2 DE [EG]2 FE | %4
 [DF]6 [DF]2 | G2 GG A2 GF | B2 BB c3 e | e2 Bc [FB]2 [DF][DG] |[M:3/4] E6 |[M:1/4] E2 | %10
[M:4/4] c6 z2 | B6 z2 | [DB]2 [DF][EG] [FA]2 [Bd]>[Ac] |[M:3/4] [B,GB]6 |[M:1/4] z2 | %15
[M:4/4] c6 z2 | [GB]6 z2 | z4 [Ad]4 |[M:7/8] e-e-e- e- e3 |] %19
V:2
 z4 z2 [E,B,]2 | [E,E]2 [E,E][E,E] [E,E]2 [E,E][E,C] | [E,B,]6 [E,B,E]2 | %3
 [G,B,]2 [F,A,B,][E,G,B,] [C,=A,]2 [F,A,E][F,A,] | [B,,B,]6 [B,,B,]2 | %5
 [E,B,E]2 [E,B,E][E,B,E] [F,B,D]2[K:treble] [G,B,D][A,B,D] | %6
 [G,B,E]2 [G,_DE][G,DE] [A,CE]3 [=A,CF] | [B,G]2[K:bass] [G,B,E][E,G,E] [B,,F,]2 [B,,A,][B,,B,] | %8
[M:3/4] [E,G,]6 |[M:1/4] z2 |[M:4/4][K:treble] A6 z2 | G6[K:bass] z2 | %12
 [B,,F,]2 [B,,B,][B,,B,] [B,,B,]2 [B,,B,]>[D,B,] |[M:3/4] E,6 |[M:1/4][K:treble] E2 | %15
[M:4/4] A6[K:bass] z2 | E,2 E,2 E,2 [E,B,]2 | B,2 B,2 B,2 B,E, |[M:7/8] B,2 z z z z2 |] %19
V:3
 x8 | x8 | x8 | x8 | x8 | x8 | x8 | x8 |[M:3/4] x6 |[M:1/4] x2 |[M:4/4] z2 E2 E2 de | z2 E2 E2 B2 | %12
 x8 |[M:3/4] x6 |[M:1/4] x2 |[M:4/4] z2 E2 E2 [EBd][Ece] | E2 E2 E2 [Ge]2 | [Ge]4 F2 F[EGe] | %18
[M:7/8] G2 A2 G3 |] %19
V:4
 x8 | x8 | x8 | x8 | x8 | x6[K:treble] x2 | x8 | x2[K:bass] x6 |[M:3/4] x6 |[M:1/4] x2 | %10
[M:4/4][K:treble] z2 A,2 A,2 Bc | z2[K:bass] E,2 E,2 [E,G,E]2 | x8 |[M:3/4] x6 | %14
[M:1/4][K:treble] x2 |[M:4/4] z2[K:bass] A,2 A,2 A,,C, | x8 | x8 |[M:7/8] E,2- [E,-C]2 [E,B,]3 |] %19

